X: 403
T: O'Donnell Abu
C: Joseph Halliday
Q: 200
M: 4/4
L: 1/8
I: scale 0.8
R: march
K: G
"G"G4 B2c2| d4 d2d2| b4 "C"g3e| "G"d4 c2B2|"Am"A4 A3B| "D7"c4 B2A2| "G"G4 B3c| "Am"dedc"D"B2A2|
"G"G4 B2c2| d4 B2d2| b4 "C"g3e| "G"d4 c2B2|"Am"A2 a4g2| "D7"f2d2 e2f2| "G"g4 "C"g3g| "G"g8||
"G"b4 b3a| g2e2 d4| "G/B"g4 g3 e| "G"d2B2 G2AB|"Am"c4 e2c2| "G/B"B4 d2 B2| "C"A4 A3B| "D"A2c2B2A2|
"G"G4 B2c2| d4B2 d2| b4 "C"g2 e2| "G"d4 c2B2|"Am"A2 a4g2| "D"f2d2 e2f2| "G"g4 "C"g3a| "G"g8|]

